X:295
T:May God Bestow on Us His Grace
%%stretchlast false
M:4/4
L:1/4
K:Ab clef=C1
"^iii"[C,C]2 "^III¹"[=E,F,CG] "^iii¹"[E,=E,CG] | "^IV"[D,F,DA] "^iii"[C,G,EG] "^ii7"[B,,A,DF] "^V7²"[B,,E,DG]/ "^Imaj7"[A,,E,CG]/ | "^v"[E,,F,EB] "^ii"[F,,F,B,B]/ "^vi"[F,,A,B,c]/ [C,G,CB] "^vi²"[C,F,CA] | "^♭vi°¹"[G,,=E,B,G]2 "^I"[A,,E,CB] "^v"[E,,E,B,B] | [F,,E,A,A] "^♯iii"[D,,E,A,G] [A,,C,A,A] "^viiø7"[G,,D,B,F] | "^vi7"[F,,C,A,E] "^v"[E,,E,B,] "^IV¹"[F,,F,A,D] "^V"[F,,G,A,E] | "^vi"[C,,F,G,C]2 "^V/vi"[C,=E,C]2 | "^vi"[F,C] "^iii¹"[E,C] "^iv°"[D,=E,DG] "^III"[C,=E,EG] | "^ii7"[B,,F,DA] "^vii°¹"[B,,G,DG]/ "^iii+"[A,,G,CG]/ "^v"[E,,A,EF] "^V"[F,,E,B,G] | "^ii"[C,F,CB]3/2 [C,A,Cc]/ "^vii"[G,,G,B,B] [G,,F,B,A] | "^I+"[A,,=E,CG] "^V"[E,,=E,B,G] "^v"[F,,E,A,B] "^♯iii"[D,,E,A,B] | "^v¹"[A,,E,A,A] "^V¹"[G,,E,B,G] "^vi"[F,,C,A,A] "^♯iii"[E,,D,B,F] | "^vi7"[F,,C,A,E] [F,,E,A,B,] "^vi"[C,,F,G,D] "^iii"[C,,G,E] | "^vi¹"[A,,F,A,C]2 "^ivmaj7"[D,,=E,A,C] "^I+"[A,,=E,A,C] | "^iii¹"[E,,C,G,E] "^iii"[C,,C,G,E] "^vi+"[D,,F,D] "^iii7³"[B,,E,G,C] | "^v¹"[A,,E,A,B,] "^I"[A,,E,A,C] "^♯iii"[E,,D,A,B,] [E,,D,B,] | "^I"[A,,E,C] "^♯iii"[D,E,A,C] "^iii"[C,E,EG] "^V7²"[B,,E,DG] | "^v¹"[A,,E,EA] "^♯iv¹"[F,,F,=DF] "^V"[E,,G,E] "^v"[E,,B,EF] | "^I"[A,,CEA] "^v¹"[A,,A,EA] "^V¹"[G,,B,EG] "^iii7"[C,B,EG] | "^♯iii"[B,,A,Dc] [D,A,c] "^iii+²"[A,,B,CB] [B,,B,CG] | "^ii"[F,,F,=A,B] "^VI"[F,,F,=A,F] "^I¹"[C,A,CE] "^vi"[C,F,CD] | "^IVmaj7"[D,F,A,C] "^vi¹"[A,,F,C] "^iii"[F,,G,CE] "^V7²"[B,,G,DE] | "^vi"[C,F,CF] "^I¹"[C,A,CE] "^♯vii"[F,,A,A] [F,,F,A,B] | "^vi"[F,,F,CG] "^III"[C,=E,CG] "^IV"[D,F,A,F] "^♯vii"[A,,F,A,F] | "^vii"[G,,B,] "^♯vii"[F,,F,A,A] "^V"[E,,E,B,G] "^IV²"[A,,D,A,F] | "^vi7"[F,,C,A,E] "^iii7"[C,,E,G,B,] "^vi"[C,,F,G,D] "^V¹"[G,E] | "^iii¹"[E,C] "^vi"[F,C] "^III¹"[=E,C]2 |]
